X:1
T:Untitled 1
T:Untitled 1
T:A Song
T:Jamie Im
C:Jamie Im
%%score 1 2
L:1/8
Q:1/4=74
M:4/4
K:A
V:1 treble nm="Violin"
V:2 treble nm="Violin"
V:1
 z3 z z4 | z8 | z8 | z8 |!mf! G6 A2 | F6 EF | G6 Bc | z F3- F2 ce | =g3 f d2 AB- | B8 | %10
 =g2 f2 d2 AB- | B6 A2 | E8 | z4 z EAc- |[M:2/4] c4 |[M:4/4] [Fd]3 c [FA]2 ef | z d3- d2 Bc | %17
 d2 cd- d f2 z | [Ec]6 B2 | B4 G,4 | E4 z4 | =gfed edef | z e3 a4 | geBG E4 | B!>(!GEB, G,4!>)! | %25
 z!mp! G,B,E E4 | z G,B,E B,G, E2- | E8- | E8 | z8 |] %30
V:2
!mf! A,CAB cBAE | DFce c A3 | A,CAB cBAE | DFce!>(! c A3!>)! |!mp! A,CAB cBAE | DFce c A3 | %6
 A,CAB cBAE | DFce cA z z | =G,B,DF AFDB, | =G,B,DF A4 | =G,B,DF AFDB, | =G,B,DF A4 | A,CAB cBAE | %13
 A,CEB .c2 z2 |[M:2/4] z4 |[M:4/4] B,DFA c2 (ef) | B,DFA c4 | =G,B,D=G A3 z | [EA]6 BA | %19
 EGBe z eBG | EGBe (ge) A2 | =GBdF AFdB | AceA cBAe | EGBE G4 | E!>(!GBE z4!>)! |!p! E8- | E8- | %27
 E8- | E8 | z8 |] %30

